X:211
T:Enchanted Lady, The
R:reel
D:Bothy Band: Out of the Wind, Into the Sun
D:Moher
Z:id:hn-reel-211
M:C|
K:D
ABAG FAdB|AGFD EA,~A,2|ABAG FAdB|1 ABde fddB:|2 ABde fdde||
f2df efdf|afdf edBd|f2df efdB|ABAG FDD2|
f2df efdf|afdf edBd|~A3B dfbf|afeg fddB||
